X:10
% %NRChange 2013-05-03
T:Den Toppede H\one fra Vensyssel
T:The Crested Hen
O:Denmark
R:Jig
M:6/8
K:A
E|: E2A A2A |ABc dcB |A2A A2A |AGA BGE |\
E2A A2A |ABc d2d |cBA GFG |[1 B3 A2 E :|[2 B3 Ace |
|: a3 A3 |cBc dcd |f3 B3 |cBc dcd |\
efg a2a |fdf a2a |gfe ^def |[1 e3 efg :|[2 e3 e2z |
|: a3 a3 |a2e c2A |a3 a2a |gab gab |\
a3 a3 |a2e c2A |f2e d2G |[1 B3 Ace :|[2 B3 A2 |]

